static/images/HowRakamWorksArrow.svg

<svg height="10" viewBox="0 0 87 10" width="87" xmlns="http://www.w3.org/2000/svg" xmlns:xlink="http://www.w3.org/1999/xlink"><linearGradient id="a" x1="0%" x2="149.460671%" y1="0%" y2="71.875%"><stop offset="0" stop-color="#00eaf8"/><stop offset="1" stop-color="#6d42ef"/></linearGradient><g fill="none" fill-rule="evenodd" opacity=".300102" transform="translate(-1)"><path d="m83.5752658.13641343 4.2858685 4.35749066c.0930764.0916397.1388657.19625122.1388657.31383457 0 .11862947-.0457893.22324099-.1388657.31383457l-4.2858685 4.74264101c-.0928624.09080281-.1998467.13578576-.3209529.13578576-.1204644 0-.2274487-.04498295-.3203111-.13578576l-.6975378-.68143946c-.0928624-.09163969-.1390796-.19625121-.1390796-.31383456 0-.11862947.0462172-.22324099.1390796-.31383457l3.2678057-3.74736699-3.2678057-3.36200741c-.0928624-.09059358-.1390796-.19520511-.1390796-.31383457 0-.11842025.0462172-.22303177.1390796-.31383457l.6975378-.68164868c.0928624-.09059358.1998467-.13641343.3203111-.13641343.1211062 0 .2280905.04581985.3209529.13641343zm-5.0973843 0 4.2858685 4.35749066c.0930763.0916397.1388656.19625122.1388656.31383457 0 .11862947-.0457893.22324099-.1388656.31383457l-4.2858685 4.74264101c-.0928624.09080281-.1998468.13578576-.320953.13578576-.1204644 0-.2274487-.04498295-.3203111-.13578576l-.6975378-.68143946c-.0928624-.09163969-.1390796-.19625121-.1390796-.31383456 0-.11862947.0462172-.22324099.1390796-.31383457l3.2678057-3.74736699-3.2678057-3.36200741c-.0928624-.09059358-.1390796-.19520511-.1390796-.31383457 0-.11842025.0462172-.22303177.1390796-.31383457l.6975378-.68164868c.0928624-.09059358.1998467-.13641343.3203111-.13641343.1211062 0 .2280906.04581985.320953.13641343z" fill="url(#a)" opacity=".397928"/><path d="m72 5c-11.0202676 2.66666667-22.6569608 2.66666667-34.9100794 0-12.2531187-2.66666667-24.6164256-2.66666667-37.0899206 0" stroke="url(#a)" stroke-dasharray="10 10 10 10" stroke-linecap="round" stroke-width="2"/></g></svg>

<?xml version="1.0" encoding="UTF-8"?>
<svg width="87px" height="10px" viewBox="0 0 87 10" version="1.1" xmlns="http://www.w3.org/2000/svg" xmlns:xlink="http://www.w3.org/1999/xlink">
    <!-- Generator: sketchtool 46.2 (44496) - http://www.bohemiancoding.com/sketch -->
    <title>25B9E6B8-2E41-40E7-B80D-DC5F3F3CE368</title>
    <desc>Created with sketchtool.</desc>
    <defs>
        <linearGradient x1="0%" y1="0%" x2="149.460671%" y2="71.875%" id="linearGradient-1">
            <stop stop-color="#00EAF8" offset="0%"></stop>
            <stop stop-color="#6D42EF" offset="100%"></stop>
        </linearGradient>
    </defs>
    <g id="Page-1" stroke="none" stroke-width="1" fill="none" fill-rule="evenodd" opacity="0.300101902">
        <g id="Home-Page-10/04/2017-screen-Shere-Rakam" transform="translate(-297.000000, -879.000000)">
            <g id="How-Rakam-Works" transform="translate(160.000000, 757.000000)">
                <g id="arrow" transform="translate(136.000000, 122.000000)">
                    <path d="M83.5752658,0.136413426 L87.8611343,4.49390409 C87.9542107,4.58554379 88,4.69015531 88,4.80773866 C88,4.92636813 87.9542107,5.03097965 87.8611343,5.12157323 L83.5752658,9.86421424 C83.4824034,9.95501705 83.3754191,10 83.2543129,10 C83.1338485,10 83.0268642,9.95501705 82.9340018,9.86421424 L82.236464,9.18277478 C82.1436016,9.09113509 82.0973844,8.98652357 82.0973844,8.86894022 C82.0973844,8.75031075 82.1436016,8.64569923 82.236464,8.55510565 L85.5042697,4.80773866 L82.236464,1.44573125 C82.1436016,1.35513767 82.0973844,1.25052614 82.0973844,1.13189668 C82.0973844,1.01347643 82.1436016,0.90886491 82.236464,0.818062109 L82.9340018,0.136413426 C83.0268642,0.045819847 83.1338485,3.55271368e-15 83.2543129,3.55271368e-15 C83.3754191,3.55271368e-15 83.4824034,0.045819847 83.5752658,0.136413426 Z M78.4778815,0.136413426 L82.76375,4.49390409 C82.8568263,4.58554379 82.9026156,4.69015531 82.9026156,4.80773866 C82.9026156,4.92636813 82.8568263,5.03097965 82.76375,5.12157323 L78.4778815,9.86421424 C78.3850191,9.95501705 78.2780347,10 78.1569285,10 C78.0364641,10 77.9294798,9.95501705 77.8366174,9.86421424 L77.1390796,9.18277478 C77.0462172,9.09113509 77,8.98652357 77,8.86894022 C77,8.75031075 77.0462172,8.64569923 77.1390796,8.55510565 L80.4068853,4.80773866 L77.1390796,1.44573125 C77.0462172,1.35513767 77,1.25052614 77,1.13189668 C77,1.01347643 77.0462172,0.90886491 77.1390796,0.818062109 L77.8366174,0.136413426 C77.9294798,0.045819847 78.0364641,3.55271368e-15 78.1569285,3.55271368e-15 C78.2780347,3.55271368e-15 78.3850191,0.045819847 78.4778815,0.136413426 Z" id="Combined-Shape" fill="url(#linearGradient-1)" opacity="0.397927989"></path>
                    <path d="M72,5 C60.9797324,7.66666667 49.3430392,7.66666667 37.0899206,5 C24.8368019,2.33333333 12.473495,2.33333333 0,5" id="Path-2" stroke="url(#linearGradient-1)" stroke-width="2" stroke-linecap="round" stroke-dasharray="10,10,10,10"></path>
                </g>
            </g>
        </g>
    </g>
</svg>
